X:1
T:Bella Ninfa
T:Bella Ninfa
T:Giovanni Ghizzolo
C:Giovanni Ghizzolo
%%score [ 1 2 ] { 3 | 4 }
L:1/8
Q:1/4=120
M:4/4
K:F
V:1 treble nm="Soprano" snm="S"
V:2 bass nm="Bass" snm="B"
V:3 treble nm="MusicXML Part"
V:4 bass 
V:1
"^Source: Madrigali et Arie---Libro secondo---Venetia---A.Raverij.1609""^Editor: André Vierendeels  (05/07/09)\nContinuo :  André Vierendeels" A2 B2 c4"^al Rever. Sig. Gia. Filippo Ferrari" | %1
w: Bel- la Nin-|
w: S'a fug- git|
 d2 c4 c2"^ARIA" | d4 d2 c2- | c2 c2 d4 | d4 B2 B2 | B4 c2 A2- | A2 A2 G4 | G4 z4 :: z4 G2 G2 | %9
w: fa fug- git-|ti- va Sciol-|* ta'e pri-|va Del mor-|tal tuo no-|* bil ve-|lo.|Go- di|
w: mo- vi le|pian- te ve-|* ro'a- man-|te Con- tro'A-|mor cru- da'e|_ su- per-|ba.|Ve- nir|
 G4 c2 B2- | B2 G2 A4 | A2 G4 G2 | A4 A4 | d2 c2 B4 | B2 A4 A2 | G4 G4 :: G2 G2 G4 | B2 A4 A2 | %18
w: pur pian- ta|_ no- vel-|la Cas- ta'e|bel- la|Ca- ra'al mon-|do'e ca- ra'al|cie- lo,|ca- ra'al mon-|do'e ca- ra'al|
w: pos- ta'il mio|_ crin l'au-|ro Non pur|lau- ro|Ma qual e|piu mi- ser'|her- ba,|ma qual e|piu mi- ser'|
 G8 | G8 :| %20
w: cie-|lo.|
w: her-|ba.|
V:2
 D,2 G,2 F,4 | D,2 _E,4 F,2 | B,,4 B,,2 _E,2- | E,2 F,2 B,,4 | B,,4 E,2 D,2 | _E,4 C,2 (D,2 | %6
w: Bel- la Nin-|fa fug- git-|ti- va Sciol-|* ta'e pri-|va Del mor-|tal tuo no-|
w: S'a fug- git|mo- vi le|pian- te ve-|* ro'a- man-|te Con- tro'A-|mor cru- da'e|
 D,2) D,2 G,,4 | G,,4 z4 :: z4 C,2 C,2 | C,4 A,,2 B,,2- | B,,2 C,2 F,,4 | F,,2 B,,4 C,2 | %12
w: * bil ve-|lo.|Go- di|pur pian- ta|_ no- vel-|la Cas- ta'e|
w: _ su- per-|ba.|Ve- nir|pos- ta'il mio|_ crin l'au-|ro Non pur|
 F,,4 F,,4 |"^Note: original keys: Ut 1st, Fa 4rth" B,,2 A,,2 B,,4 | G,,2 D,4 D,2 | G,,4 G,,4 :: %16
w: bel- la|Ca- ra'al mon-|do'e ca- ra'al|cie- lo,|
w: lau- ro|Ma qual e|piu mi- ser'|her- ba,|
 C,2 =B,,2 C,4 | G,,2 D,4 D,2 | G,,8 | G,,8 :| %20
w: ca- ra'al mon-|do'e ca- ra'al|cie-|lo.|
w: ma qual e|piu mi- ser'|her-|ba.|
V:3
 [DFA]2 [DGB]2 [FAc]4 | [Ad]2 [Gc]4 [Ac]2 | [DFB]6 [Gc]2- | [Gc]2 [FAc]2 [D-FB-]4 | [DFB]4 [GB]4- | %5
 [GB]4 [Gc]2 [^FA]2- | [FA]4 [D-G=B-]4 | [DGB]8 :: [C-EGc-]8 | [CEGc]4 [EAc]2 [GB]2- | %10
 [GB]2 [EGc]2 [FAc]4 | [FAc]2 [DGB]4 [EGc]2 | [FAc]8 | [Fd]8 | [Gd]4 [^Fd]4 | [DGB]8 :: %16
 [EGc]2 [DGd]2 [EGc]4 | [DGB]2 [DB]4 [^FA]2 | [D-G=B]8 | [DGB]8 :| %20
V:4
 D,2 G,2 F,4 | D,2 _E,4 F,2 | B,,6 _E,2- | E,2 F,2 B,,4 | B,,4 E,2 D,2 | _E,4 C,2 D,2- | D,4 G,,4 | %7
 G,,4 z4 :: z4 C,4 | C,4 A,,2 B,,2- | B,,2 C,2 F,,4 | F,,2 B,,4 C,2 | F,,8 | B,,2 A,,2 B,,4 | %14
 G,,2 D,4 D,2 | G,,8 :: C,2 =B,,2 C,4 | G,,2 D,4 D,2 | G,,8 | G,,8 :| %20

